!!!!SEGMENT: pl-gd--ee-1638--005-009_marenzio-luca--il-primo-libro-de-madrigali-spirituali-a-cinque-voci-sento-squarciar.krn
!!!cenid: 15xx:962
!!!COM: Marenzio, Luca
!!!COM-rismID: pe30003955
!!!CDT: ~1553-1599/08/22
!!!CNT: Italian
!!!GTL: Il Primo libro de madrigali spirituali a cinque voci
!!!OTL: Sento squarciar
!!!OMV: 009
!!!PDT: 1588
!!!AGN:
!!!SMS-siglum: PL-GD
!!!SMS-shelfmark: Ee 1638
!!!SMS-shelfwork: 005-009 G
!!!SMS-variant:
!!!SMS-altvar:
!!!NIFC-rismSourceID: 1001202747
!!!NIFC-rismChildID: 990039269
!!!NIFC-islandoraID: pl-gd:57883
!!!URL-pdf-islandora: https://repozytorium.nifc.pl/islandora/object/pl-gd%3A57883/datastream/PDF/view
!!!URL-scan: https://polish.musicsources.pl/pl/lokalizacje/galeria/klocki-introligatorskie/655 @EN{Scan on Polish Music Sources Website} @PL{Skany w portalu Dziedzictwo Muzyki Polskiej w otwartym dostępie}
!!!ONB-nifc: UWAGA: zbiór na stronach: Canto: s. 666-677, Alto: s. 514-525, Tenore: s. 362-373, Bassus: s. 210-221, Quinto: s. 58-69. Uwaga: utwory podzielone wg tytułów w spisach treści dostępnych na końcu każdej księgi głosowej.
!!!AIN: 1 alto 1 bass 1 soprn 1 tenor 1 vox
!!!key: e:phr
**kern	**text	**mod-text	**kern	**text	**mod-text	**kern	**text	**mod-text	**kern	**text	**mod-text	**kern	**text	**mod-text
*part5	*part5	*part5	*part4	*part4	*part4	*part3	*part3	*part3	*part2	*part2	*part2	*part1	*part1	*part1
*staff5	*staff5	*staff5	*staff4	*staff4	*staff4	*staff3	*staff3	*staff3	*staff2	*staff2	*staff2	*staff1	*staff1	*staff1
*I"BASSO	*	*	*I"TENORE 	*	*	*I"QVINTO 	*	*	*I"ALTO	*	*	*I"CANTO	*	*
*mI"Basso	*	*	*mI"Tenore 	*	*	*mI"Alto	*	*	*mI"Alto	*	*	*mI"Soprano	*	*
*I'B	*	*	*I'T	*	*	*I'V	*	*	*I'A	*	*	*I'S	*	*
*mI'B	*	*	*mI'T	*	*	*mI'A	*	*	*mI'A	*	*	*mI'S	*	*
*ICvox	*	*	*ICvox	*	*	*ICvox	*	*	*ICvox	*	*	*ICvox	*	*
*Ibass	*	*	*Itenor	*	*	*Ivox	*	*	*Ialto	*	*	*Isoprn	*	*
*clefC4	*	*	*clefC3	*	*	*clefC2	*	*	*clefC2	*	*	*clefG2	*	*
*mclefF4	*	*	*mclefGv2	*	*	*mclefG2	*	*	*mclefG2	*	*	*	*	*
*k[]	*	*	*k[]	*	*	*k[]	*	*	*k[]	*	*	*k[]	*	*
*e:phr	*	*	*e:phr	*	*	*e:phr	*	*	*e:phr	*	*	*e:phr	*	*
*M2/2	*	*	*M2/2	*	*	*M2/2	*	*	*M2/2	*	*	*M2/2	*	*
*met(C|)	*	*	*met(C)	*	*	*met(C|)	*	*	*met(C)	*	*	*met(C|)	*	*
*mmet(c|)	*	*	*mmet(c|)	*	*	*mmet(c|)	*	*	*mmet(c|)	*	*	*mmet(c|)	*	*
=1-	=1-	=1-	=1-	=1-	=1-	=1-	=1-	=1-	=1-	=1-	=1-	=1-	=1-	=1-
!!LO:TX:a:t=P:problem=tekst sprawdzony z: Rime oneste de'migliori poeti antichi e moderni, Tom 2, s. 456 [on-line]
0r	.	.	1e	SEn-	Sen-	0r	.	.	0r	.	.	0r	.	.
=2-	=2-	=2-	=2-	=2-	=2-	=2-	=2-	=2-	=2-	=2-	=2-	=2-	=2-	=2-
.	.	.	1A	-to	-to	.	.	.	.	.	.	.	.	.
=3-	=3-	=3-	=3-	=3-	=3-	=3-	=3-	=3-	=3-	=3-	=3-	=3-	=3-	=3-
0r	.	.	2r	.	.	0r	.	.	0r	.	.	1ee	SEn-	Sen-
.	.	.	2e\	ſquar-	squar-	.	.	.	.	.	.	.	.	.
=4-	=4-	=4-	=4-	=4-	=4-	=4-	=4-	=4-	=4-	=4-	=4-	=4-	=4-	=4-
.	.	.	4.f\	-ciar	-ciar	.	.	.	.	.	.	1a	-to	-to
.	.	.	8e\	del	del	.	.	.	.	.	.	.	.	.
.	.	.	4d\	vec-	vec-	.	.	.	.	.	.	.	.	.
.	.	.	4f\	-chio	-chio	.	.	.	.	.	.	.	.	.
=5-	=5-	=5-	=5-	=5-	=5-	=5-	=5-	=5-	=5-	=5-	=5-	=5-	=5-	=5-
1A	Sen-	Sen-	4e\	Tem-	tem-	2r	.	.	0r	.	.	2r	.	.
.	.	.	4d\	-pio’l	-pio’l	.	.	.	.	.	.	.	.	.
.	.	.	2c#X/	ve-	ve-	2e/	ſquar-	squar-	.	.	.	2ee\	ſquar-	squar-
=6-	=6-	=6-	=6-	=6-	=6-	=6-	=6-	=6-	=6-	=6-	=6-	=6-	=6-	=6-
1D	-to	-to	8d\	.	.	4.a\	-ciar	-ciar	.	.	.	4.ff\	-ciar	-ciar
.	.	.	8e\	.	.	.	.	.	.	.	.	.	.	.
.	.	.	8f\	.	.	.	.	.	.	.	.	.	.	.
.	.	.	8g\	.	.	8g\	del	del	.	.	.	8ee\	del	del
.	.	.	2a\	-lo	-lo,	4f\	ve[c]-	ve[c]-	.	.	.	4dd\	vec-	vec-
.	.	.	.	.	.	4d/	-chio	-chio	.	.	.	4ff\	-chio	-chio
=7-	=7-	=7-	=7-	=7-	=7-	=7-	=7-	=7-	=7-	=7-	=7-	=7-	=7-	=7-
2r	.	.	0r	.	.	4c#X/	te(m)-	te(m)-	1a	SEn-	Sen-	4ee\	Tem-	tem-
.	.	.	.	.	.	4d/	-pio’l	-pio’l	.	.	.	4dd\	-pio’l	-pio’l
!	!	!	!	!	!	!LO:SIC:v:s:t=ve-	!	!	!	!	!	!	!	!
2A/	ſquar-	squar-	.	.	.	2e/	ue-	ve-	.	.	.	2cc#X\	ve-	ve-
=8-	=8-	=8-	=8-	=8-	=8-	=8-	=8-	=8-	=8-	=8-	=8-	=8-	=8-	=8-
4.f\	-ciar	-ciar	.	.	.	1a	-lo	-lo,	1d	-to	-to	2dd\	-lo	-lo,
8e\	del	del	.	.	.	.	.	.	.	.	.	.	.	.
4d\	ve[c]-	ve[c]-	.	.	.	.	.	.	.	.	.	2r	.	.
4f\	-chio	-chio	.	.	.	.	.	.	.	.	.	.	.	.
=9-	=9-	=9-	=9-	=9-	=9-	=9-	=9-	=9-	=9-	=9-	=9-	=9-	=9-	=9-
4e\	te(m)-	te(m)-	1A	sen-	sen-	2r	.	.	2r	.	.	2r	.	.
4d\	-pio’l	-pio’l	.	.	.	.	.	.	.	.	.	.	.	.
!LO:SIC:v:s:t=ve-	!	!	!	!	!	!	!	!	!	!	!	!	!	!
2c#X\	ue-	ve-	.	.	.	1a\	Sen-	sen-	2e/	ſquar-	squar-	2ee\	ſquar-	squar-
=10-	=10-	=10-	=10-	=10-	=10-	=10-	=10-	=10-	=10-	=10-	=10-	=10-	=10-	=10-
2d\	-lo	-lo,	1D	-to	-to	.	.	.	4.a\	-ciar	-ciar	4.ff\	-ciar	-ciar
.	.	.	.	.	.	.	.	.	8g\	del	del	8ee\	del	del
4r	.	.	.	.	.	2d/	-to	-to	4f\	vec-	vec-	4dd\	vec-	vec-
4d\	E’l	E’l	.	.	.	.	.	.	4a\	-chio	-chio	4ff\	-chio	-chio
*	*	*	*custos:A	*	*	*	*	*	*	*	*	*custos:ee	*	*
!	!	!	!LO:LB:g=original	!	!	!	!	!	!	!	!	!LO:LB:g=original	!	!
=11-	=11-	=11-	=11-	=11-	=11-	=11-	=11-	=11-	=11-	=11-	=11-	=11-	=11-	=11-
2G/	mio	mio	2r	.	.	2r	.	.	4g\	tem-	tem-	4ee\	Te(m)-	te(m)-
.	.	.	.	.	.	.	.	.	4f\	-pio’l	-pio’l	4dd\	-pio il	-pio’l
*custos:A	*	*	*	*	*	*	*	*	*	*	*	*	*	*
!LO:LB:g=original	!	!	!	!	!	!	!	!	!LO:SIC:v:s:t=ve-	!	!	!	!	!
2A/	ſi	si	4r	.	.	2a\	ſquar-	squar-	2e/	ue-	ve-	2cc#X\	ve-	ve-
.	.	.	4A/	ſquar-	squar-	.	.	.	.	.	.	.	.	.
=12-	=12-	=12-	=12-	=12-	=12-	=12-	=12-	=12-	=12-	=12-	=12-	=12-	=12-	=12-
2D/	ſtà	sta	4.f\	-ciar	-ciar	4.a\	-ciar	-ciar	8d/	-lo	-lo,	1dd	-lo	-lo,
.	.	.	.	.	.	.	.	.	8e/	.	.	.	.	.
.	.	.	.	.	.	.	.	.	8f\	.	.	.	.	.
.	.	.	8e\	del	del	8g\	del	del	8g\	.	.	.	.	.
2F/	di-	di-	4d\	vec-	vec-	4f\	ve[c]-	ve[c]-	2a\	.	.	.	.	.
.	.	.	4f\	-chio	-chio	4a\	-chio	-chio	.	.	.	.	.	.
=13-	=13-	=13-	=13-	=13-	=13-	=13-	=13-	=13-	=13-	=13-	=13-	=13-	=13-	=13-
2G/	-nan-	-nan-	4e\	tem-	tem-	4g\	te(m)-	te(m)-	0r	.	.	1r	.	.
.	.	.	4d\	-pio il	-pio’l	4f\	-pio’l	-pio’l	.	.	.	.	.	.
*	*	*	*	*	*	*custos:e	*	*	*	*	*	*	*	*
!	!	!	!	!	!	!LO:PB:g=original	!	!	!	!	!	!	!	!
2A/	-zi à-	-zi a-	2c#X/	ve-	ve-	2e/	ve-	ve-	.	.	.	.	.	.
=14-	=14-	=14-	=14-	=14-	=14-	=14-	=14-	=14-	=14-	=14-	=14-	=14-	=14-	=14-
2B\	-gl’oc-	-gl’oc-	0.d	-lo	-lo,	2d/	-lo	-lo,	.	.	.	1dd	E’l	E’l
1G/	-chi	-chi av-	.	.	.	2r	.	.	.	.	.	.	.	.
=15-	=15-	=15-	=15-	=15-	=15-	=15-	=15-	=15-	=15-	=15-	=15-	=15-	=15-	=15-
.	.	.	.	.	.	2r	.	.	1r	.	.	2g/	mio	mio
2F#X/	auuol-	-vol-	.	.	.	4r	.	.	.	.	.	2a/	ſi	si
.	.	.	.	.	.	4a\	ſquar-	squar-	.	.	.	.	.	.
*	*	*	*	*	*	*	*	*	*custos:g	*	*	*	*	*
!	!	!	!	!	!	!	!	!	!LO:PB:g=original	!	!	!	!	!
=16-	=16-	=16-	=16-	=16-	=16-	=16-	=16-	=16-	=16-	=16-	=16-	=16-	=16-	=16-
1G	-to	-to,	.	.	.	4.b\	-ciar	-ciar	2r	.	.	2d/	ſtà	sta
.	.	.	.	.	.	8a\	del	del	.	.	.	.	.	.
.	.	.	.	.	.	4b\	ve[c]-	ve[c]-	2g\	E’l	E’l	2dd\	di-	di-
.	.	.	.	.	.	4dd\	-chio	-chio	.	.	.	.	.	.
=17-	=17-	=17-	=17-	=17-	=17-	=17-	=17-	=17-	=17-	=17-	=17-	=17-	=17-	=17-
!	!	!	!	!	!	!	!	!	!	!	!	!LO:SIC:v:s:t=-nan-	!	!
0r	.	.	1r	.	.	4cc\	te(m)-	te(m)-	2c/	mio	mio	2ee\	-uan-	-nan-
.	.	.	.	.	.	4b\	-pio il	-pio il	.	.	.	.	.	.
.	.	.	.	.	.	2a\	ve-	ve-	2d/	ſi	si	2ff#X\	-zi à-	-zi a-
=18-	=18-	=18-	=18-	=18-	=18-	=18-	=18-	=18-	=18-	=18-	=18-	=18-	=18-	=18-
.	.	.	2r	.	.	1b	-lo	-lo,	2G/	ſtà	sta	2gg\	-gl’oc-	-gl’oc-
.	.	.	2g\	E’l	E’l	.	.	.	4r	.	.	2dd\	-chi	-chi av-
.	.	.	.	.	.	.	.	.	2g\	di-	di-	.	.	.
=19-	=19-	=19-	=19-	=19-	=19-	=19-	=19-	=19-	=19-	=19-	=19-	=19-	=19-	=19-
!	!	!	!	!	!	!	!	!	!	!	!	!LO:SIC:v:s:t=avvol-	!	!
0r	.	.	2cny/	mio	mio	1r	.	.	.	.	.	2ee\	au[u]ol-	-vol-
.	.	.	.	.	.	.	.	.	2a\	-nan-	-nan-	.	.	.
.	.	.	2d\	ſi	si	.	.	.	.	.	.	1dd\	-to	-to,
.	.	.	.	.	.	.	.	.	4a\	-zi à-	-zi a-	.	.	.
=20-	=20-	=20-	=20-	=20-	=20-	=20-	=20-	=20-	=20-	=20-	=20-	=20-	=20-	=20-
.	.	.	2G/	ſtà	sta	4r	.	.	2b\	-gl’o[c]-	-gl’o[c]-	.	.	.
.	.	.	.	.	.	2g\	di-	di-	.	.	.	.	.	.
.	.	.	2c/	di-	di-	.	.	.	2e/	-chi	-chi av-	2r	.	.
.	.	.	.	.	.	2a\	-nan-	-nan-	.	.	.	.	.	.
=21-	=21-	=21-	=21-	=21-	=21-	=21-	=21-	=21-	=21-	=21-	=21-	=21-	=21-	=21-
!	!	!	!	!	!	!	!	!	!LO:SIC:v:s:t=avvol-	!	!	!	!	!
2r	.	.	2d\	-na(n)-	-na(n)-	.	.	.	2f\	avvol-	-vol-	2r	.	.
.	.	.	.	.	.	4b\	zi à-	zi a-	.	.	.	.	.	.
*	*ij	*ij	*	*	*	*	*	*	*	*	*	*	*	*
2cny\	E’l	E’l	2e\	-zi à-	-zi a-	1cc\	-gl’o[c]-	-gl’o[c]-	4g\	-to	-to,	2ee\	Sen-	Sen-
.	.	.	.	.	.	.	.	.	2cc\	sen-	sen-	.	.	.
=22-	=22-	=22-	=22-	=22-	=22-	=22-	=22-	=22-	=22-	=22-	=22-	=22-	=22-	=22-
2Fny/	mio	mio	2f\	gl’o[c]-	gl’o[c]-	.	.	.	.	.	.	2a/	-to	-to
.	.	.	.	.	.	.	.	.	4f\	-to	-to	.	.	.
2G/	ſi	si	2d\	-chi	-chi av-	2b\	-chi	-chi av-	4r	.	.	4r	.	.
.	.	.	.	.	.	.	.	.	4d/	ſquar-	squar-	4b/	ſquar-	squar-
=23-	=23-	=23-	=23-	=23-	=23-	=23-	=23-	=23-	=23-	=23-	=23-	=23-	=23-	=23-
!	!	!	!LO:SIC:v:s:t=avvol-	!	!	!LO:SIC:v:s:t=avvol-	!	!	!	!	!	!	!	!
2C/	ſtà	sta	1e	au[u]ol-	-vol-	2cc\	au[u]ol-	-vol-	4.g\	-ciar	-ciar	4.ee\	-ciar	-ciar
.	.	.	.	.	.	.	.	.	8f\	del	del	8dd\	del	del
2E/	di-	di-	.	.	.	2g\	-to	-to,	4e/	ve[c]-	ve[c]-	4ccny\	vec-	vec-
.	.	.	.	.	.	.	.	.	4g\	-chio	-chio	4ee\	-chio	-chio
*	*	*	*	*	*	*	*	*	*	*	*	*custos:dd	*	*
!	!	!	!	!	!	!	!	!	!	!	!	!LO:LB:g=original	!	!
=24-	=24-	=24-	=24-	=24-	=24-	=24-	=24-	=24-	=24-	=24-	=24-	=24-	=24-	=24-
2F/	-nan-	-nan-	2A/	-to	-to,	1r	.	.	4f\	te(m)-	te(m)-	4dd\	te(m)-	te(m)-
.	.	.	.	.	.	.	.	.	4e/	-pio’il	-pio’l	4cc\	-pio’l	-pio’l
2G/	zi à-	zi a-	4r	.	.	.	.	.	2d/	ve-	ve-	2b/	ve-	ve-
.	.	.	4g\	E[’]l	E[’]l	.	.	.	.	.	.	.	.	.
*	*	*	*custos:f#	*	*	*	*	*	*custos:c	*	*	*	*	*
!	!	!	!LO:LB:g=original	!	!	!	!	!	!LO:LB:g=original	!	!	!	!	!
=25-	=25-	=25-	=25-	=25-	=25-	=25-	=25-	=25-	=25-	=25-	=25-	=25-	=25-	=25-
1A	-gl’oc-	-gl’oc-	2e\	mio	mio	2r	.	.	1c	-lo	-lo,	1cc	-lo	-lo,
.	.	.	2f#X\	ſi	si	2a\	E’l	E’l	.	.	.	.	.	.
*	*	*	*	*	*	*custos:d	*	*	*	*	*	*	*	*
!	!	!	!	!	!	!LO:LB:g=original	!	!	!	!	!	!	!	!
=26-	=26-	=26-	=26-	=26-	=26-	=26-	=26-	=26-	=26-	=26-	=26-	=26-	=26-	=26-
1G	-chi	-chi av-	1g	ſtà	sta	2d/	mio	mio	2r	.	.	2r	.	.
.	.	.	.	.	.	2e/	ſi	si	2B/	E’l	E’l	2gg\	E’l	E’l
=27-	=27-	=27-	=27-	=27-	=27-	=27-	=27-	=27-	=27-	=27-	=27-	=27-	=27-	=27-
1F	auuol-	-vol-	2a\	di-	di-	2A/	ſtà	sta	2c/	mio	mio	2cc\	mio	mio
.	.	.	1d\	-nan-	-nan-	2a\	di-	di-	2A/	ſi	si	2dd\	ſi	si
=28-	=28-	=28-	=28-	=28-	=28-	=28-	=28-	=28-	=28-	=28-	=28-	=28-	=28-	=28-
0.E	-to	-to:	.	.	.	2b#X\	-nan-	-nan-	4G/	ſtà	sta	4g/	ſtà	sta
.	.	.	.	.	.	.	.	.	4g\	di-	di-	4b/	di-	di-
.	.	.	2c/	zi à-	zi a-	2a\	zi à-	zi a-	4g\	-nan-	-nan-	4cc\	-nan-	-nan-
.	.	.	.	.	.	.	.	.	4f\	zi à-	zi a-	4dd\	-zi à-	-zi a-
=29-	=29-	=29-	=29-	=29-	=29-	=29-	=29-	=29-	=29-	=29-	=29-	=29-	=29-	=29-
.	.	.	2B/	-gl’oc-	-gl’oc-	2g#X\	-gl’oc-	-gl’oc-	2e/	-gl’oc-	-gl’oc-	4ee\	-gl’oc-	-gl’oc-
.	.	.	.	.	.	.	.	.	.	.	.	4dd\	-chi	-chi av-
!	!	!	!	!	!	!	!	!	!	!	!	!LO:SIC:v:s:t=avvol-	!	!
.	.	.	2A/	-chi	-chi av-	1a\	-chi	-chi av-	2e/	-chi au[u]-	-chi av-	2cc\	au[u]ol-	-vol-
=30-	=30-	=30-	=30-	=30-	=30-	=30-	=30-	=30-	=30-	=30-	=30-	=30-	=30-	=30-
!	!	!	!LO:SIC:v:s:t=avvol-	!	!	!	!	!	!	!	!	!	!	!
.	.	.	1B	au[u]ol-	-vol-	.	.	.	1e	-ol-	-vol-	1b	-to	-to:
!	!	!	!	!	!	!LO:SIC:v:s:t=avvol-	!	!	!	!	!	!	!	!
.	.	.	.	.	.	2g#X\	auuol-	-vol-	.	.	.	.	.	.
*custos:A	*Xij	*Xij	*	*	*	*	*	*	*	*	*	*	*	*
!LO:LB:g=original	!	!	!	!	!	!	!	!	!	!	!	!	!	!
=31-	=31-	=31-	=31-	=31-	=31-	=31-	=31-	=31-	=31-	=31-	=31-	=31-	=31-	=31-
4r	.	.	1A	-to	-to:	2a\	-to	-to:	1e	-to	-to:	4r	.	.
4.A/	Tre-	Tre-	.	.	.	.	.	.	.	.	.	4.cc\	Tre-	Tre-
.	.	.	.	.	.	4r	.	.	.	.	.	.	.	.
8A/	-ma	-ma	.	.	.	.	.	.	.	.	.	8cc\	-ma	-ma
4c\	la	la	.	.	.	4.e/	Tre-	Tre-	.	.	.	4ee\	la	la
=32-	=32-	=32-	=32-	=32-	=32-	=32-	=32-	=32-	=32-	=32-	=32-	=32-	=32-	=32-
2C/	ter-	ter-	4r	.	.	.	.	.	4r	.	.	2e/	ter-	ter-
.	.	.	.	.	.	8e/	-ma	-ma	.	.	.	.	.	.
.	.	.	4.c/	Tre-	Tre-	4gny\	la	la	4.e/	Tre-	Tre-	.	.	.
4C/	-ra	-ra,	.	.	.	2cny/	ter-	ter-	.	.	.	4e/	-ra	-ra,
.	.	.	8c/	-ma	-ma	.	.	.	8e\	-ma	-ma	.	.	.
*	*ij	*ij	*	*	*	*	*	*	*	*	*	*	*ij	*ij
4.c\	Tre-	tre-	4e\	la	la	.	.	.	4g\	la	la	4.ee\	Tre-	tre-
=33-	=33-	=33-	=33-	=33-	=33-	=33-	=33-	=33-	=33-	=33-	=33-	=33-	=33-	=33-
.	.	.	2g\	ter-	ter-	1e	-ra	-ra	2c/	ter-	ter-	.	.	.
8c\	-ma	-ma	.	.	.	.	.	.	.	.	.	8ee\	-ma	-ma
4e\	la	la	.	.	.	.	.	.	.	.	.	4gg\	la	la
2E/	ter-	ter-	4g\	-ra	-ra,	.	.	.	2B/	-ra	-ra,	2g/	ter-	ter-
*	*	*	*	*ij	*ij	*	*	*	*	*	*	*	*	*
.	.	.	4.e\	Tre-	tre-	.	.	.	.	.	.	.	.	.
*	*	*	*	*	*	*	*	*	*	*	*	*custos:g	*	*
!	!	!	!	!	!	!	!	!	!	!	!	!LO:LB:g=original	!	!
=34-	=34-	=34-	=34-	=34-	=34-	=34-	=34-	=34-	=34-	=34-	=34-	=34-	=34-	=34-
4E/	-ra	-ra,	.	.	.	2r	.	.	4r	.	.	2g/	-ra	-ra
.	.	.	8e\	-ma	-ma	.	.	.	.	.	.	.	.	.
*	*Xij	*Xij	*	*	*	*	*	*	*	*ij	*ij	*	*Xij	*Xij
4.e\	Tre-	tre-	4g\	la	la	.	.	.	4.c/	Tre-	tre-	.	.	.
.	.	.	2c/	ter-	ter-	2cc\	e	e	.	.	.	4r	.	.
8e\	-ma	-ma	.	.	.	.	.	.	8c/	-ma	-ma	.	.	.
4g\	la	la	.	.	.	.	.	.	4e/	la	la	4gg\	e	e
=35-	=35-	=35-	=35-	=35-	=35-	=35-	=35-	=35-	=35-	=35-	=35-	=35-	=35-	=35-
*	*	*	*	*	*	*	*	*	*col	*	*	*	*	*
2G/	ter-	ter-	2d\	-ra	-ra	4bny\	faſ-	fas-	3%2g	ter-	ter-	4gg\	faſ-	fas-
.	.	.	.	.	.	4a\	-si o-	-si o-	.	.	.	4ffny\	-si o-	-si o-
2G/	-ra e	-ra e	2r	.	.	4g\	-ſcu-	-scu-	.	.	.	4ee\	-ſcu-	-scu-
.	.	.	.	.	.	.	.	.	3b\	-ra	-ra	.	.	.
.	.	.	.	.	.	4f\	-ro’l	-ro’l	.	.	.	4dd\	-ro’l	-ro’l
*	*	*	*	*	*	*	*	*	*	*Xij	*Xij	*	*	*
=36-	=36-	=36-	=36-	=36-	=36-	=36-	=36-	=36-	=36-	=36-	=36-	=36-	=36-	=36-
4A/	faſ-	fas-	1r	.	.	2e/	cie-	cie-	3%2a	e faſ-	e fas-	1cc	cie-	cie-
4B\	-si o-	-si o-	.	.	.	.	.	.	.	.	.	.	.	.
4c\	-ſcu-	-scu-	.	.	.	2e/	-lo	-lo,	.	.	.	.	.	.
.	.	.	.	.	.	.	.	.	3a\	-si o-	-si o-	.	.	.
4d\	-ro’l	-ro’l	.	.	.	.	.	.	.	.	.	.	.	.
*	*	*	*	*Xij	*Xij	*custos:g	*	*	*	*	*	*	*	*
!	!	!	!	!	!	!LO:LB:g=original	!	!	!	!	!	!	!	!
=37-	=37-	=37-	=37-	=37-	=37-	=37-	=37-	=37-	=37-	=37-	=37-	=37-	=37-	=37-
2e\	ciel-	ciel-	2r	.	.	4r	.	.	3%2g	ſcu-	scu-	2b/	-lo	-lo,
.	.	.	.	.	.	4.g\	Tre-	tre-	.	.	.	.	.	.
*	*	*	*	*	*	*	*	*	*	*	*	*	*ij	*ij
4e\	-lo	-lo,	2c/	e	e	.	.	.	.	.	.	2ee\	e	e
.	.	.	.	.	.	8g\	-ma	-ma	.	.	.	.	.	.
.	.	.	.	.	.	.	.	.	3e/	-ro’l	-ro’l	.	.	.
4c\	e	e	.	.	.	4a\	la	la	.	.	.	.	.	.
=38-	=38-	=38-	=38-	=38-	=38-	=38-	=38-	=38-	=38-	=38-	=38-	=38-	=38-	=38-
*col	*	*	*	*	*	*	*	*	*Xcol	*	*	*col	*	*
3%2B-X	faſ-	fas-	4d\	faſ-	fas-	2b-X\	ter-	ter-	2.f\	cie-	cie-	3%2dd	.	.
.	.	.	4e\	-si o-	-si o-	.	.	.	.	.	.	.	.	.
*	*	*	*custos:f	*	*	*	*	*	*	*	*	*	*	*
!	!	!	!LO:LB:g=original	!	!	!	!	!	!	!	!	!	!	!
.	.	.	4fny\	-ſcu-	-scu-	2b-\	-ra	-ra	.	.	.	.	.	.
3B-\	-si o-	-si o-	.	.	.	.	.	.	.	.	.	3dd\	-faſ-	-fas-
.	.	.	4g\	-ro’l	-ro’l	.	.	.	8e\	.	.	.	.	.
.	.	.	.	.	.	.	.	.	8d/	.	.	.	.	.
*custos:A	*	*	*	*	*	*	*	*	*	*	*	*	*	*
!LO:LB:g=original	!	!	!	!	!	!	!	!	!	!	!	!	!	!
=39-	=39-	=39-	=39-	=39-	=39-	=39-	=39-	=39-	=39-	=39-	=39-	=39-	=39-	=39-
3%2A	-ſcu-	-scu-	2a\	cie-	cie-	2r	.	.	4e/	.	.	3%2cc	-si	-si
.	.	.	.	.	.	.	.	.	4A/	.	.	.	.	.
.	.	.	2e\	-lo	-lo,	2cc\	e	e	2.a\	.	.	.	.	.
3A/	-ro’l	-ro’l	.	.	.	.	.	.	.	.	.	3cc\	o-	o-
*Xcol	*	*	*	*	*	*	*	*	*	*	*	*Xcol	*	*
=40-	=40-	=40-	=40-	=40-	=40-	=40-	=40-	=40-	=40-	=40-	=40-	=40-	=40-	=40-
1d	cie-	cie-	1r	.	.	4f\	ſaſ-	ſas-	.	.	.	2.a/	-ſcu-	-scu-
.	.	.	.	.	.	4g\	-si o-	-si o-	4g\	.	.	.	.	.
.	.	.	.	.	.	4a\	-ſcu-	-scu-	2.f\	.	.	.	.	.
.	.	.	.	.	.	4bny\	-ro’l	-ro’l	.	.	.	8g/	-ro’l	-ro’l
.	.	.	.	.	.	.	.	.	.	.	.	8f/	.	.
=41-	=41-	=41-	=41-	=41-	=41-	=41-	=41-	=41-	=41-	=41-	=41-	=41-	=41-	=41-
1c	-lo	-lo,	0r	.	.	1cc	cie-	cie-	.	.	.	1g	cie-	cie-
.	.	.	.	.	.	.	.	.	8e\	.	.	.	.	.
.	.	.	.	.	.	.	.	.	8d/	.	.	.	.	.
.	.	.	.	.	.	.	.	.	2e/	.	.	.	.	.
=42-	=42-	=42-	=42-	=42-	=42-	=42-	=42-	=42-	=42-	=42-	=42-	=42-	=42-	=42-
2F/	Io	Io	.	.	.	0.cc	-lo	-lo,	0.f	lo	lo,	0a	-lo	-lo,
2F/	no(n)	no(n)	.	.	.	.	.	.	.	.	.	.	.	.
*	*	*	*	*	*	*	*	*	*	*	*	*	*Xij	*Xij
=43-	=43-	=43-	=43-	=43-	=43-	=43-	=43-	=43-	=43-	=43-	=43-	=43-	=43-	=43-
2F/	mu-	mu-	1r	.	.	.	.	.	.	.	.	.	.	.
2F/	-to	-to	.	.	.	.	.	.	.	.	.	.	.	.
=44-	=44-	=44-	=44-	=44-	=44-	=44-	=44-	=44-	=44-	=44-	=44-	=44-	=44-	=44-
2F/	pen-	pen-	2r	.	.	.	.	.	.	.	.	1r	.	.
2F/	-ſier	-sier,	4r	.	.	.	.	.	.	.	.	.	.	.
.	.	.	4f\	nè	nè	.	.	.	.	.	.	.	.	.
=45-	=45-	=45-	=45-	=45-	=45-	=45-	=45-	=45-	=45-	=45-	=45-	=45-	=45-	=45-
0r	.	.	4e\	ca(n)-	ca(n)-	2r	.	.	0r	.	.	2cc\	Io	Io
.	.	.	4c/	-gio’l	-gio’l	.	.	.	.	.	.	.	.	.
.	.	.	2f\	vol-	vol-	4r	.	.	.	.	.	2cc\	no(n)	no(n)
.	.	.	.	.	.	4f\	nè	nè	.	.	.	.	.	.
=46-	=46-	=46-	=46-	=46-	=46-	=46-	=46-	=46-	=46-	=46-	=46-	=46-	=46-	=46-
.	.	.	2c/	-to	-to,	4g\	ca(n)-	ca(n)-	.	.	.	2cc\	mu-	mu-
.	.	.	.	.	.	4e/	-gio’l	-gio’l	.	.	.	.	.	.
.	.	.	4r	.	.	2f\	vol-	vol-	.	.	.	2cc\	-to	-to
*	*	*	*	*ij	*ij	*	*	*	*	*	*	*	*	*
.	.	.	4f\	nè	nè	.	.	.	.	.	.	.	.	.
=47-	=47-	=47-	=47-	=47-	=47-	=47-	=47-	=47-	=47-	=47-	=47-	=47-	=47-	=47-
1r	.	.	4g\	ca(n)-	ca(n)-	2c/	-to	-to,	1r	.	.	2cc\	pe(n)-	pe(n)-
.	.	.	4e\	-gio’l	-gio’l	.	.	.	.	.	.	.	.	.
.	.	.	2f\	vol-	vol-	4r	.	.	.	.	.	2cc\	-ſier	-sier,
*	*	*	*	*	*	*	*ij	*ij	*	*	*	*	*	*
.	.	.	.	.	.	4f\	nè	nè	.	.	.	.	.	.
*	*	*	*	*	*	*custos:e	*	*	*	*	*	*	*	*
!	!	!	!	!	!	!LO:LB:g=original	!	!	!	!	!	!	!	!
=48-	=48-	=48-	=48-	=48-	=48-	=48-	=48-	=48-	=48-	=48-	=48-	=48-	=48-	=48-
4r	.	.	2c/	-to	-to,	4e/	ca(n)-	ca(n)-	2g\	Io	Io	4r	.	.
4c\	nè	nè	.	.	.	4e/	-gio’l	-gio’l	.	.	.	4cc\	nè	nè
4Bny\	ca(n)-	ca(n)-	2r	.	.	2d/	vol-	vol-	2g\	no(n)	no(n)	4dd\	ca(n)-	ca(n)-
4G/	-gio’l	-gio’l	.	.	.	.	.	.	.	.	.	4b/	-gio’l	-gio’l
*	*	*	*	*	*	*	*	*	*	*	*	*custos:cc	*	*
!	!	!	!	!	!	!	!	!	!	!	!	!LO:LB:g=original	!	!
=49-	=49-	=49-	=49-	=49-	=49-	=49-	=49-	=49-	=49-	=49-	=49-	=49-	=49-	=49-
2c\	vol-	vol-	4r	.	.	2e/	-to	-to,	2g\	mu-	mu-	2cc\	vol-	vol-
.	.	.	4c/	nè-	nè-	.	.	.	.	.	.	.	.	.
2G/	-to	-to,	4d\	-ca(n)-	-ca(n)-	4r	.	.	2g\	-to	-to	2b/	-to	-to,
*	*	*	*	*	*	*	*Xij	*Xij	*	*	*	*	*	*
.	.	.	4B/	-gio’l	-gio’l	4d/	nè	nè	.	.	.	.	.	.
=50-	=50-	=50-	=50-	=50-	=50-	=50-	=50-	=50-	=50-	=50-	=50-	=50-	=50-	=50-
4r	.	.	2c/	vol-	vol-	4e/	ca(n)-	ca(n)-	2g\	pe(n)-	pe(n)-	4r	.	.
*	*ij	*ij	*	*	*	*	*	*	*	*	*	*	*ij	*ij
4c\	nè	nè	.	.	.	4e/	-gio’l	-gio’l	.	.	.	4cc\	nè	nè
4d\	ca(n)-	ca(n)-	2G/	-to	-to;	2d/	vol-	vol-	4g\	-ſier	-sier,	4b/	ca(n)-	ca(n)-
4B\	-gio’l	-gio’l	.	.	.	.	.	.	4d/	nè	nè	4b/	-gio’l	-gio’l
*	*	*	*custos:c	*Xij	*Xij	*	*	*	*	*	*	*	*Xij	*Xij
!	!	!	!LO:LB:g=original	!	!	!	!	!	!	!	!	!	!	!
=51-	=51-	=51-	=51-	=51-	=51-	=51-	=51-	=51-	=51-	=51-	=51-	=51-	=51-	=51-
2c\	vol-	vol-	4r	.	.	1g	-to	-to;	4e/	ca(n)-	ca(n)-	2ee\	vol-	vol-
.	.	.	4.c/	spez-	Spez-	.	.	.	4c/	-gio’l	-gio’l	.	.	.
2G/	-to	-to;	.	.	.	.	.	.	2d/	vol-	vol-	2dd\	-to	-to;
.	.	.	8B/	-[z]a[n]-	-[z]a[n]-	.	.	.	.	.	.	.	.	.
.	.	.	4B/	-ſi i	-si i	.	.	.	.	.	.	.	.	.
*custos:A	*Xij	*Xij	*	*	*	*	*	*	*	*	*	*	*	*
!LO:LB:g=original	!	!	!	!	!	!	!	!	!	!	!	!	!	!
=52-	=52-	=52-	=52-	=52-	=52-	=52-	=52-	=52-	=52-	=52-	=52-	=52-	=52-	=52-
4r	.	.	2A/	ſaſ-	sas-	2r	.	.	2e/	-to	-to;	4r	.	.
4.A/	spez-	Spez-	.	.	.	.	.	.	.	.	.	4.cc\	spe[z]-	Spe[z]-
.	.	.	2E/	-si	-si,	4.e/	spez-	Spez-	2r	.	.	.	.	.
8A/	-za[n]-	-za[n]-	.	.	.	.	.	.	.	.	.	8cc\	-za(n)-	-za(n)-
2G/	-ſi i	-si i	.	.	.	.	.	.	.	.	.	2b/	-ſi i	-si i
.	.	.	.	.	.	8e/	-za(n)-	-za(n)-	.	.	.	.	.	.
*	*	*	*	*	*	*	*	*	*custos:e	*	*	*	*	*
!	!	!	!	!	!	!	!	!	!LO:LB:g=original	!	!	!	!	!
=53-	=53-	=53-	=53-	=53-	=53-	=53-	=53-	=53-	=53-	=53-	=53-	=53-	=53-	=53-
.	.	.	0r	.	.	2d/	-ſi i  	-si i  	2r	.	.	.	.	.
2F/	ſaſ-	sas-	.	.	.	.	.	.	.	.	.	2a/	ſaſ-	sas-
.	.	.	.	.	.	2c/	ſaſ-	sas-	4r	.	.	.	.	.
2E/	-si	-si,	.	.	.	.	.	.	4.e/	spez-	Spez-	2g/	-si	-si,
=54-	=54-	=54-	=54-	=54-	=54-	=54-	=54-	=54-	=54-	=54-	=54-	=54-	=54-	=54-
.	.	.	.	.	.	2B/	-si	-si,	.	.	.	.	.	.
.	.	.	.	.	.	.	.	.	8e/	-za(n)-	-za(n)-	.	.	.
*	*ij	*ij	*	*	*	*	*ij	*ij	*	*	*	*	*ij	*ij
4.G/	spez-	spez-	.	.	.	.	.	.	2d/	-ſi i	-si i	4.b/	spe[z]-	spe[z]-
.	.	.	.	.	.	4.d/	spez-	spez-	.	.	.	.	.	.
8G/	-za[n]-	-za[n]-	.	.	.	.	.	.	.	.	.	8b/	-za(n)-	-za(n)-
2F/	-ſi i	-si i	.	.	.	.	.	.	2A/	ſaſ-	sas-	2a/	-ſi i	-si i
.	.	.	.	.	.	8d/	-za(n)-	-za(n)-	.	.	.	.	.	.
=55-	=55-	=55-	=55-	=55-	=55-	=55-	=55-	=55-	=55-	=55-	=55-	=55-	=55-	=55-
.	.	.	1r	.	.	2c/	-ſi  	-si  	.	.	.	.	.	.
2E/	ſaſ-	sas-	.	.	.	.	.	.	4c/	-si	-si,	2g/	ſaſ-	sas-
.	.	.	.	.	.	4.B/	i	i	4r	.	.	.	.	.
4D/	-si	-si,	.	.	.	.	.	.	4d/	et	et	4f/	-si	-si,
.	.	.	.	.	.	8c/	.	.	.	.	.	.	.	.
*	*Xij	*Xij	*	*	*	*	*	*	*	*	*	*	*Xij	*Xij
=56-	=56-	=56-	=56-	=56-	=56-	=56-	=56-	=56-	=56-	=56-	=56-	=56-	=56-	=56-
4r	.	.	2r	.	.	2d/	ſaſ-	sas-	2f\	io	io,	4r	.	.
4d\	et	et	.	.	.	.	.	.	.	.	.	4a/	et	et
1c\	io	io	4r	.	.	2A/	-si	-si,	4r	.	.	1cc\	io	io
.	.	.	4c/	et	et	.	.	.	4e/	et	et	.	.	.
*	*	*	*	*	*	*	*Xij	*Xij	*	*	*	*	*	*
=57-	=57-	=57-	=57-	=57-	=57-	=57-	=57-	=57-	=57-	=57-	=57-	=57-	=57-	=57-
.	.	.	2e\	io	io	0r	.	.	2g\	io	io	.	.	.
2G/	ſon	son	2d\	ſon	son	.	.	.	2g\	ſon	son	2b/	ſon	son
=58-	=58-	=58-	=58-	=58-	=58-	=58-	=58-	=58-	=58-	=58-	=58-	=58-	=58-	=58-
1B	fred-	fred-	1d#X	fre[d]-	fre[d]-	.	.	.	1f#X	fre[d]-	fre[d]-	1b	fre[d]-	fre[d]-
=59-	=59-	=59-	=59-	=59-	=59-	=59-	=59-	=59-	=59-	=59-	=59-	=59-	=59-	=59-
!	!	!	!LO:SIC:s=1d#X	!	!	!	!	!	!LO:SIC:s=1f#X	!	!	!	!	!
1B	-do	-do	1d#yX	-do	-do	2r	.	.	1f#yX	-do	-do	1.b	-do	-do
.	.	.	.	.	.	2B/	ſon	son	.	.	.	.	.	.
*	*	*	*	*	*	*custos:B	*	*	*	*	*	*	*	*
!	!	!	!	!	!	!LO:LB:g=original	!	!	!	!	!	!	!	!
=60-	=60-	=60-	=60-	=60-	=60-	=60-	=60-	=60-	=60-	=60-	=60-	=60-	=60-	=60-
0E	g[i]e-	g[i]e-	0e	g[i]e-	g[i]e-	2B/	fred-	fred-	2g#X\	g[i]e-	g[i]e-	.	.	.
.	.	.	.	.	.	2c/	-do	-do	2.a\	.	.	1ee\	g[i]e-	g[i]e-
=61-	=61-	=61-	=61-	=61-	=61-	=61-	=61-	=61-	=61-	=61-	=61-	=61-	=61-	=61-
.	.	.	.	.	.	1B	g[i]e-	g[i]e-	.	.	.	.	.	.
.	.	.	.	.	.	.	.	.	8g#X\	.	.	.	.	.
.	.	.	.	.	.	.	.	.	8f#X\	.	.	.	.	.
!	!	!	!	!	!	!	!	!	!LO:SIC:s=2g#\	!	!	!	!	!
.	.	.	.	.	.	.	.	.	2g#X\	.	.	2b/	-lo	-lo:
=62-	=62-	=62-	=62-	=62-	=62-	=62-	=62-	=62-	=62-	=62-	=62-	=62-	=62-	=62-
1D	-lo	-lo:	4f\	-lo	-lo:	1d	-lo	-lo:	4a\	-lo	-lo:	4r	.	.
.	.	.	2a\	sor-	Sor-	.	.	.	2fny\	sor-	Sor-	2dd\	sor-	Sor-
.	.	.	4f\	-go-	-go-	.	.	.	4a\	-go-	-go-	4ff\	-go-	-go-
*custos:c	*	*	*	*	*	*	*	*	*custos:cc	*	*	*custos:gg	*	*
!LO:LB:g=original	!	!	!	!	!	!	!	!	!LO:LB:g=original	!	!	!LO:LB:g=original	!	!
=63-	=63-	=63-	=63-	=63-	=63-	=63-	=63-	=63-	=63-	=63-	=63-	=63-	=63-	=63-
2r	.	.	1e	-no	-no,	2.c/	Sor-	Sor-	2cc\	-no i	-no i	2gg\	-no i	-no i
2.c\	Sor-	Sor-	.	.	.	.	.	.	1gny\	mor-	mor-	1ee\	mor-	mor-
.	.	.	.	.	.	4e/	-go-	-go-	.	.	.	.	.	.
=64-	=64-	=64-	=64-	=64-	=64-	=64-	=64-	=64-	=64-	=64-	=64-	=64-	=64-	=64-
.	.	.	2c/	ſor-	sor-	2g\	-no	-no,	.	.	.	.	.	.
4e\	-go-	-go-	.	.	.	.	.	.	.	.	.	.	.	.
2g\	-no i	-no i	2dny\	-go-	-go-	2.G/	Sor-	sor-	2b\	-ti	-ti,	2dd\	-ti	-ti,
=65-	=65-	=65-	=65-	=65-	=65-	=65-	=65-	=65-	=65-	=65-	=65-	=65-	=65-	=65-
0C	mor-	mor-	2e\	-no i	-no i	.	.	.	2r	.	.	2r	.	.
.	.	.	.	.	.	4c/	-go-	-go-	.	.	.	.	.	.
.	.	.	1E/	mor-	mor-	2e/	-no i	-no i	2g\	i	i	2ee\	i	i
=66-	=66-	=66-	=66-	=66-	=66-	=66-	=66-	=66-	=66-	=66-	=66-	=66-	=66-	=66-
.	.	.	.	.	.	1c	mor-	mor-	1G	mor-	mor-	1e	mor-	mor-
.	.	.	2E/	-ti	-ti,	.	.	.	.	.	.	.	.	.
=67-	=67-	=67-	=67-	=67-	=67-	=67-	=67-	=67-	=67-	=67-	=67-	=67-	=67-	=67-
1C	-ti i[o]	-ti i	2r	.	.	1c	-ti	-ti,	1G	-ti i[o]	-ti i	1e	-ti i	-ti i
.	.	.	1c\	i	i	.	.	.	.	.	.	.	.	.
=68-	=68-	=68-	=68-	=68-	=68-	=68-	=68-	=68-	=68-	=68-	=68-	=68-	=68-	=68-
1F	gi-	gia-	.	.	.	2r	.	.	1A	gia-	gia-	1f	gia-	gia-
.	.	.	1F/	gia-	gia-	2c/	i[o] gia-	i gia-	.	.	.	.	.	.
=69-	=69-	=69-	=69-	=69-	=69-	=69-	=69-	=69-	=69-	=69-	=69-	=69-	=69-	=69-
2BB-X/	-a[c]cio	-[c]cio an-	.	.	.	2d/	-ccio	-ccio	2B-X/	-ccio a(n)-	-ccio a(n)-	2f/	-[c]cio a(n)-	-[c]cio a(n)-
*	*	*	*custos:F	*	*	*	*	*	*	*	*	*	*	*
!	!	!	!LO:LB:g=original	!	!	!	!	!	!	!	!	!	!	!
1BB-/	ancor	-cor	2F/	-ccio	-ccio an-	2d/	a(n)-	a(n)-	1B-/	-cor	-cor	1f/	-cor	-cor
=70-	=70-	=70-	=70-	=70-	=70-	=70-	=70-	=70-	=70-	=70-	=70-	=70-	=70-	=70-
.	.	.	2.D/	an-	-cor	2d/	-cor	-cor	.	.	.	.	.	.
2D/	ſe-	se-	.	.	.	2d/	ſe-	se-	2A/	ſe-	se-	2f/	ſe-	se-
.	.	.	4D/	-cor	se-	.	.	.	.	.	.	.	.	.
=71-	=71-	=71-	=71-	=71-	=71-	=71-	=71-	=71-	=71-	=71-	=71-	=71-	=71-	=71-
1AA	-pol-	-pol-	1E	se-	-pol-	1c#X	-pol-	-pol-	1A	-pol-	-pol-	1e	-pol-	-pol-
=72-	=72-	=72-	=72-	=72-	=72-	=72-	=72-	=72-	=72-	=72-	=72-	=72-	=72-	=72-
!	!	!	!	!	!	!LO:SIC:v:s=1c#	!	!	!	!	!	!	!	!
1AA	-to	-to:	2E/	-pol-	-to:	1c#y	-to	-to:	1A	-to	-to:	1e	-to	-to:
.	.	.	1e\	-to	Ma	.	.	.	.	.	.	.	.	.
=73-	=73-	=73-	=73-	=73-	=73-	=73-	=73-	=73-	=73-	=73-	=73-	=73-	=73-	=73-
1A	Ma	Ma	.	.	.	4r	.	.	1c#X	Ma	Ma	1r	.	.
.	.	.	.	.	.	4A/	Ma	Ma	.	.	.	.	.	.
.	.	.	1A/	Ma	tu,	4e/	tu	tu,	.	.	.	.	.	.
.	.	.	.	.	.	4e/	ca-	ca-	.	.	.	.	.	.
*	*	*	*	*	*	*custos:f	*	*	*	*	*	*	*	*
!	!	!	!	!	!	!LO:LB:g=original	!	!	!	!	!	!	!	!
=74-	=74-	=74-	=74-	=74-	=74-	=74-	=74-	=74-	=74-	=74-	=74-	=74-	=74-	=74-
2D/	tu	tu	.	.	.	4f\	-gio(n)	-gio(n)	2d/	tu	tu,	1a	Ma	Ma
.	.	.	.	.	.	4g\	di	di	.	.	.	.	.	.
2d\	ca-	ca-	2f\	tu	ca-	4a\	sì	sì	2r	.	.	.	.	.
.	.	.	.	.	.	4b\	gra(n)	gra(n)	.	.	.	.	.	.
=75-	=75-	=75-	=75-	=75-	=75-	=75-	=75-	=75-	=75-	=75-	=75-	=75-	=75-	=75-
4c\	-gion	-gion	4e\	ca-	-gio(n)	2cc\	co-	co-	1e	Ma	ma	2ee\	tu	tu,
4B\	di	di	4d\	-gio(n)	di	.	.	.	.	.	.	.	.	.
4A/	sì	sì	4c/	di	sì	2cc\	-ſe	-se,	.	.	.	2e/	ca-	ca-
4G/	gra(n)	gra(n)	4B/	sì	gra(n)	.	.	.	.	.	.	.	.	.
=76-	=76-	=76-	=76-	=76-	=76-	=76-	=76-	=76-	=76-	=76-	=76-	=76-	=76-	=76-
1F	co-	co-	2c/	gra(n)	co-	2r	.	.	2A/	tu	tu,	4f/	-gio(n)	-gio(n)
.	.	.	.	.	.	.	.	.	.	.	.	4g/	di	di
.	.	.	2c/	coſe	-se,	2f\	ca-	ca-	2a\	ca-	ca-	4a/	sì	sì
.	.	.	.	.	.	.	.	.	.	.	.	4b/	gra(n)	gra(n)
=77-	=77-	=77-	=77-	=77-	=77-	=77-	=77-	=77-	=77-	=77-	=77-	=77-	=77-	=77-
1C	-ſe	-se,	2r	.	.	4e/	-gion	-gion	4g\	-gio(n)	-gio(n)	2cc\	co-	co-
.	.	.	.	.	.	4f\	di	di	4f\	di	di	.	.	.
.	.	.	2e\	Ma	ma	4g\	sì	sì	4e/	sì	sì	4cc\	-ſe	-se,
*	*	*	*	*	*	*	*	*	*	*	*	*	*ij	*ij
.	.	.	.	.	.	4e/	gra(n)	gra(n)	4a\	gran	gran	4cc\	Ma	ma
*	*	*	*	*	*	*	*	*	*custos:a	*	*	*	*	*
!	!	!	!	!	!	!	!	!	!LO:LB:g=original	!	!	!	!	!
=78-	=78-	=78-	=78-	=78-	=78-	=78-	=78-	=78-	=78-	=78-	=78-	=78-	=78-	=78-
1D	dam-	dam-	2A/	tu	tu,	2d/	co-	co-	2a\	co-	co-	2f/	tu	tu,
.	.	.	2a\	ca-	ca-	2d/	-ſe	-se,	2f\	ſe	se,	2ff\	ca-	ca-
*custos:E	*	*	*	*	*	*	*	*	*	*	*	*	*	*
!LO:LB:g=original	!	!	!	!	!	!	!	!	!	!	!	!	!	!
=79-	=79-	=79-	=79-	=79-	=79-	=79-	=79-	=79-	=79-	=79-	=79-	=79-	=79-	=79-
1E	-mi	-mi	4g\	-gion	-gion	2r	.	.	2r	.	.	4ee\	-gio(n)	-gio(n)
.	.	.	4f\	di	di	.	.	.	.	.	.	4dd\	di	di
*	*	*	*	*	*	*	*	*	*	*	*	*custos:cc	*	*
!	!	!	!	!	!	!	!	!	!	!	!	!LO:LB:g=original	!	!
.	.	.	4e\	sì	sì	2g\	Ma	ma	2e/	Ma	ma	4cc\	sì	sì
.	.	.	4g\	gra(n)	gra(n)	.	.	.	.	.	.	4b/	gra(n)	gra(n)
=80-	=80-	=80-	=80-	=80-	=80-	=80-	=80-	=80-	=80-	=80-	=80-	=80-	=80-	=80-
1F	ch’io	Ch’io	1f	co-	co-	2c/	tu	tu	2A/	tu	tu,	1a	co-	co-
.	.	.	.	.	.	2cc\	ca-	ca-	2a\	ca-	ca-	.	.	.
=81-	=81-	=81-	=81-	=81-	=81-	=81-	=81-	=81-	=81-	=81-	=81-	=81-	=81-	=81-
1G	ri-	ri-	2d\	-ſe	-se,	4b\	-gion	-gion	4g\	-gion	-gion	2dd\	-ſe	-se,
.	.	.	.	.	.	4a\	di	di	4f\	di	di	.	.	.
*	*	*	*	*	*	*	*	*	*	*	*	*	*Xij	*Xij
.	.	.	1e\	dam-	dam-	4g\	sì	sì	4e/	sì	sì	1gg\	da(m)-	da(m)-
.	.	.	.	.	.	4f\	gran	gran	4d/	gra(n)	gra(n)	.	.	.
*	*	*	*	*	*	*custos:e	*	*	*	*	*	*	*	*
!	!	!	!	!	!	!LO:LB:g=original	!	!	!	!	!	!	!	!
=82-	=82-	=82-	=82-	=82-	=82-	=82-	=82-	=82-	=82-	=82-	=82-	=82-	=82-	=82-
00A	-ſor-	-sor-	.	.	.	2e/	co-	co-	2c#X/	co-	co-	.	.	.
*	*	*	*custos:d	*	*	*	*	*	*	*	*	*	*	*
!	!	!	!LO:LB:g=original	!	!	!	!	!	!	!	!	!	!	!
.	.	.	2d\	-mi	-mi	2a\	-ſe	-se,	2d/	.	.	2ff\	-mi	-mi
=83-	=83-	=83-	=83-	=83-	=83-	=83-	=83-	=83-	=83-	=83-	=83-	=83-	=83-	=83-
.	.	.	2c/	chi’o	Chi’o	1r	.	.	2e/	ſe	se,	2ee\	ch’io	Ch’io
.	.	.	2f\	ri-	ri-	.	.	.	2r	.	.	2dd\	ri-	ri-
=84-	=84-	=84-	=84-	=84-	=84-	=84-	=84-	=84-	=84-	=84-	=84-	=84-	=84-	=84-
.	.	.	1.e	-ſor-	-sor-	2A/	dam-	dam-	2cny/	dam-	dam-	1.ee	-ſor-	-sor-
.	.	.	.	.	.	2B/	-mi	-mi	2d/	-mi	-mi	.	.	.
=85-	=85-	=85-	=85-	=85-	=85-	=85-	=85-	=85-	=85-	=85-	=85-	=85-	=85-	=85-
.	.	.	.	.	.	2c/	ch’io	Ch’io	2e/	Ch’io	Ch’io	.	.	.
.	.	.	2a\	-ga	-ga	2d/	ri-	ri-	2f\	ri-	ri-	4dd\	.	.
.	.	.	.	.	.	.	.	.	.	.	.	4cc\	.	.
=86-	=86-	=86-	=86-	=86-	=86-	=86-	=86-	=86-	=86-	=86-	=86-	=86-	=86-	=86-
0G	-ga	-ga	1r	.	.	1e	-ſor-	-sor-	0g	-ſor-	-sor-	2b/	.	.
.	.	.	.	.	.	.	.	.	.	.	.	2.cc\	.	.
=87-	=87-	=87-	=87-	=87-	=87-	=87-	=87-	=87-	=87-	=87-	=87-	=87-	=87-	=87-
.	.	.	2r	.	.	1d	-ga	-ga	.	.	.	.	.	.
.	.	.	.	.	.	.	.	.	.	.	.	8b/	.	.
.	.	.	.	.	.	.	.	.	.	.	.	8a/	.	.
.	.	.	1g\	a-	a-	.	.	.	.	.	.	2b/	.	.
=88-	=88-	=88-	=88-	=88-	=88-	=88-	=88-	=88-	=88-	=88-	=88-	=88-	=88-	=88-
2r	.	.	.	.	.	2r	.	.	2.c/	-ga	-ga	0cc	-ga	-ga
1c\	a-	a-	2g\	-pra	-pra	1e\	a-	a-	.	.	.	.	.	.
.	.	.	.	.	.	.	.	.	4d/	.	.	.	.	.
=89-	=89-	=89-	=89-	=89-	=89-	=89-	=89-	=89-	=89-	=89-	=89-	=89-	=89-	=89-
.	.	.	1g	gl’o[c]-	gl’o[c]-	.	.	.	1e	.	.	.	.	.
2E/	-pra	-pra	.	.	.	2g\	-pra	-pra	.	.	.	.	.	.
=90-	=90-	=90-	=90-	=90-	=90-	=90-	=90-	=90-	=90-	=90-	=90-	=90-	=90-	=90-
1F	gl’oc-	gl’oc-	1c	-chi	-chi	1a	gl’oc-	gl’oc-	2r	.	.	2r	.	.
.	.	.	.	.	.	.	.	.	1cc\	a-	a-	1ff\	a-	a-
=91-	=91-	=91-	=91-	=91-	=91-	=91-	=91-	=91-	=91-	=91-	=91-	=91-	=91-	=91-
1C	-chi	-chi,	2r	.	.	1g	-chi	-chi	.	.	.	.	.	.
.	.	.	2c/	e’l	è’l	.	.	.	2e/	-pra	-pra	2ee\	-pra	-pra
*	*ij	*ij	*	*	*	*	*	*	*custos:f	*	*	*	*	*
!	!	!	!	!	!	!	!	!	!LO:LB:g=original	!	!	!	!	!
=92-	=92-	=92-	=92-	=92-	=92-	=92-	=92-	=92-	=92-	=92-	=92-	=92-	=92-	=92-
2r	.	.	8F/	cor	cor	4r	.	.	1f	gl’o[c]-	gl’o[c]-	0cc	gl’oc-	gl’oc-
.	.	.	8G/	.	.	.	.	.	.	.	.	.	.	.
.	.	.	8A/	.	.	4cc\	e’l	è’l	.	.	.	.	.	.
.	.	.	8B/	.	.	.	.	.	.	.	.	.	.	.
1F/	a-	a-	2c/	.	.	8f\	cor	cor	.	.	.	.	.	.
.	.	.	.	.	.	8g\	.	.	.	.	.	.	.	.
.	.	.	.	.	.	8a\	.	.	.	.	.	.	.	.
.	.	.	.	.	.	8b\	.	.	.	.	.	.	.	.
=93-	=93-	=93-	=93-	=93-	=93-	=93-	=93-	=93-	=93-	=93-	=93-	=93-	=93-	=93-
.	.	.	4A/	in-	in-	4cc\	in-	in-	1c	-chi	-chi	.	.	.
.	.	.	4.a\	-fiam-	-fiam-	4cc\	-fiam-	-fiam-	.	.	.	.	.	.
2A/	-pra	-pra	.	.	.	8cc\	.	.	.	.	.	.	.	.
.	.	.	8g\	.	.	8b\	.	.	.	.	.	.	.	.
*	*	*	*	*	*	*custos:a	*	*	*	*	*	*	*	*
!	!	!	!	!	!	!LO:LB:g=original	!	!	!	!	!	!	!	!
.	.	.	8f\	.	.	8a\	.	.	.	.	.	.	.	.
.	.	.	8e\	.	.	8g\	.	.	.	.	.	.	.	.
=94-	=94-	=94-	=94-	=94-	=94-	=94-	=94-	=94-	=94-	=94-	=94-	=94-	=94-	=94-
1B-X	gl’occhi	gl’occhi	2d\	.	.	1f	mi	mi,	4r	.	.	1dd	-chi	-chi
*	*Xij	*Xij	*	*	*	*	*	*	*	*	*	*	*	*
.	.	.	.	.	.	.	.	.	4f\	e’l	è’l	.	.	.
.	.	.	2d\	-mi	-mi,	.	.	.	8B-X/	cor	cor	.	.	.
.	.	.	.	.	.	.	.	.	8c/	.	.	.	.	.
.	.	.	.	.	.	.	.	.	8d/	.	.	.	.	.
.	.	.	.	.	.	.	.	.	8e/	.	.	.	.	.
=95-	=95-	=95-	=95-	=95-	=95-	=95-	=95-	=95-	=95-	=95-	=95-	=95-	=95-	=95-
1F	e’l	è’l	4r	.	.	2a\	a-	a-	2f\	.	.	4r	.	.
.	.	.	4c/	e’l	è’l	.	.	.	.	.	.	4cc\	e’l	è’l
*	*	*	*custos:A	*	*	*	*	*	*	*	*	*	*	*
!	!	!	!LO:LB:g=original	!	!	!	!	!	!	!	!	!	!	!
.	.	.	8A/	cor	cor	1cc\	-pra	-pra	2a\	in-	in-	8f/	cor	cor
.	.	.	8B/	.	.	.	.	.	.	.	.	8g/	.	.
.	.	.	8c/	.	.	.	.	.	.	.	.	8a/	.	.
.	.	.	8d\	.	.	.	.	.	.	.	.	8b/	.	.
=96-	=96-	=96-	=96-	=96-	=96-	=96-	=96-	=96-	=96-	=96-	=96-	=96-	=96-	=96-
1C	cor	cor	4e\	in-	in-	.	.	.	8g\	-fiam-	-fiam-	4cc\	.	.
.	.	.	.	.	.	.	.	.	8f\	.	.	.	.	.
.	.	.	4c/	fiam-	fiam-	.	.	.	8e/	.	.	4ee\	in-	in-
.	.	.	.	.	.	.	.	.	8d/	.	.	.	.	.
.	.	.	8c/	.	.	2e/	gl’oc-	gl’oc-	4c/	.	.	8ee\	-fiam-	-fiam-
.	.	.	8B/	.	.	.	.	.	.	.	.	8dd\	.	.
*	*	*	*	*	*	*	*	*	*	*	*	*custos:cc	*	*
!	!	!	!	!	!	!	!	!	!	!	!	!LO:LB:g=original	!	!
.	.	.	8A/	.	.	.	.	.	4c/	-mi	-mi,	8cc\	.	.
.	.	.	8G/	.	.	.	.	.	.	.	.	8b\	.	.
=97-	=97-	=97-	=97-	=97-	=97-	=97-	=97-	=97-	=97-	=97-	=97-	=97-	=97-	=97-
1D	i[n]-	i[n]-	4.F/	.	.	2f\	-chi	-chi	4r	.	.	4a/	.	.
.	.	.	.	.	.	.	.	.	4d/	e’l	è’l	4a/	-mi	-mi,
.	.	.	8G/	.	.	.	.	.	.	.	.	.	.	.
.	.	.	2A/	.	.	2d/	e’l	è’l	8a\	cor	cor	4r	.	.
.	.	.	.	.	.	.	.	.	8g\	.	.	.	.	.
.	.	.	.	.	.	.	.	.	8f\	.	.	4a/	e’l	è’l
.	.	.	.	.	.	.	.	.	8e\	.	.	.	.	.
=98-	=98-	=98-	=98-	=98-	=98-	=98-	=98-	=98-	=98-	=98-	=98-	=98-	=98-	=98-
*lig	*	*	*	*	*	*	*	*	*	*	*	*	*	*
*col	*	*	*	*	*	*	*	*	*	*	*	*	*	*
1AA	-fia(m)-	-fia(m)-	4.B/	.	.	4r	.	.	4d/	.	.	8dd\	cor	cor
.	.	.	.	.	.	.	.	.	.	.	.	8cc\	.	.
.	.	.	.	.	.	4d/	cor	cor	4dd\	in-	in-	8b/	.	.
.	.	.	8c/	.	.	.	.	.	.	.	.	8a/	.	.
.	.	.	2d\	mi	mi,	4.g\	.	.	8dd\	-fiam-	-fiam-	4g/	.	.
.	.	.	.	.	.	.	.	.	8cc\	.	.	.	.	.
*	*	*	*	*	*	*	*	*	*custos:b	*	*	*	*	*
!	!	!	!	!	!	!	!	!	!LO:LB:g=original	!	!	!	!	!
.	.	.	.	.	.	.	.	.	8b\	.	.	4gg\	.	.
.	.	.	.	.	.	8f\	.	.	8a\	.	.	.	.	.
=99-	=99-	=99-	=99-	=99-	=99-	=99-	=99-	=99-	=99-	=99-	=99-	=99-	=99-	=99-
2.BBny	.	.	2r	.	.	8e\	.	.	2g\	.	.	8gg\	in-	in-
.	.	.	.	.	.	8d/	.	.	.	.	.	8ff\	-fiam-	-fiam-
.	.	.	.	.	.	2c/	.	.	.	.	.	8ee\	.	.
.	.	.	.	.	.	.	.	.	.	.	.	8dd\	.	.
.	.	.	2g\	in-	in-	.	.	.	2e/	-mi	-mi,	2cc\	.	.
*Xlig	*	*	*	*	*	*	*	*	*	*	*	*	*	*
.	.	.	.	.	.	.	.	.	.	.	.	.	.	.
4C	.	.	.	.	.	8B/	.	.	.	.	.	.	.	.
.	.	.	.	.	.	8A/	.	.	.	.	.	.	.	.
*Xcol	*	*	*	*	*	*	*	*	*	*	*	*	*	*
=100-	=100-	=100-	=100-	=100-	=100-	=100-	=100-	=100-	=100-	=100-	=100-	=100-	=100-	=100-
0E	.	.	8g\	fiam-	fiam-	2G/	.	.	4r	.	.	4b/	-mi	-mi,
.	.	.	8f\	.	.	.	.	.	.	.	.	.	.	.
.	.	.	8e\	.	.	.	.	.	4e/	in-	in-	4gg\	in-	in-
.	.	.	8d\	.	.	.	.	.	.	.	.	.	.	.
.	.	.	4c/	.	.	4r	.	.	8e/	-fiam-	-fiam-	8gg\	-fiam-	-fiam-
.	.	.	.	.	.	.	.	.	8f\	.	.	8ff\	.	.
.	.	.	8B/	.	.	4e/	in-	in-	8g\	.	.	8ee\	.	.
.	.	.	8A/	.	.	.	.	.	8a\	.	.	8dd\	.	.
=101-	=101-	=101-	=101-	=101-	=101-	=101-	=101-	=101-	=101-	=101-	=101-	=101-	=101-	=101-
.	.	.	4G#X/	.	.	1e	-fiam-	-fiam-	4b#X\	.	.	4.ee\	.	.
.	.	.	4A/	.	.	.	.	.	2a\	.	.	.	.	.
.	.	.	.	.	.	.	.	.	.	.	.	16dd\	.	.
.	.	.	.	.	.	.	.	.	.	.	.	16cc\	.	.
.	.	.	2B/	.	.	.	.	.	.	.	.	2b/	.	.
.	.	.	.	.	.	.	.	.	4g#X\	.	.	.	.	.
=102-	=102-	=102-	=102-	=102-	=102-	=102-	=102-	=102-	=102-	=102-	=102-	=102-	=102-	=102-
00A	-mi.	-mi.	00A	mi.	mi.	00e	-mi.	-mi.	00a	mi.	mi.	00cc#X	-mi.	-mi.
==	==	==	==	==	==	==	==	==	==	==	==	==	==	==
*-	*-	*-	*-	*-	*-	*-	*-	*-	*-	*-	*-	*-	*-	*-
!!!system-decoration: [(s1,s2,s3,s4,s5)]
!!!ENC: Marta Opryszak
!!!END: 2022-07-04
!!!ENC: Natalia Wrzos
!!!END: 2022-07-28
!!!ENC-modern: Katarzyna Serwa
!!!END-modern: 2022-08-12
!!!filter-modern: sic -sq | shed -e "s/LO:DY:(a|b|rj)/LO:dy:$1/L" | autostem -r | tie -s | shed -e "s/-//B" | shed -k -e "s/[<>]//g" | shed -e "s/^custos:/Xcustos:/I" | shed -e "s/TX(.*):t=P:/tx$1:t=P:/LG" | shed -e "s/^(\d+[\/\\]right)/$1yy/I; s/^(\d+[\/\\]left)/$1yy/I" | humtr -p | modori -m
!!!YEC: Copyright 2022 Narodowy Instytut Fryderyka Chopina (https://polishscores.org)
!!!YEM: License CC-BY-4.0 (https://creativecommons.org/licenses/by/4.0)
